assets/images/lobster.svg

<svg width="402" height="402" viewBox="0 0 402 402" fill="none" xmlns="http://www.w3.org/2000/svg">
<path fill-rule="evenodd" clip-rule="evenodd" d="M195.427 43.4683C242.594 33.3873 302.274 27.7742 332.832 65.4945C363.052 102.798 332.739 156.773 325.885 204.502C320.59 241.372 319.027 277.677 297.973 308.245C271.627 346.495 241.445 396.401 195.427 393.91C149.612 391.431 136.18 330.077 103.296 297.709C69.473 264.416 2.31464 252.239 3.00529 204.502C3.697 156.692 69.5355 144.463 105.954 113.985C136.238 88.6415 156.973 51.6871 195.427 43.4683Z" fill="#D8E6FF" fill-opacity="0.6"/>
<path opacity="0.1" fill-rule="evenodd" clip-rule="evenodd" d="M194.829 78.064C226.252 71.1181 254.009 34.9648 284.197 46.1208C312.67 56.643 306.792 101.486 324.665 126.045C345.467 154.626 397.909 165.743 396.988 201.095C396.057 236.842 342.427 245.45 320.813 273.918C302.868 297.556 303.58 331.958 282.097 352.427C258.361 375.042 227.576 395.088 194.829 393.954C162.186 392.824 137.321 365.836 110.979 346.501C87.0886 328.965 53.5329 315.167 47.8385 286.061C41.862 255.514 87.1735 231.873 82.5308 201.095C76.5055 161.151 6.08567 137.904 19.7568 99.8963C32.1143 65.5405 89.4768 85.6768 125.669 81.1634C148.966 78.2583 171.905 83.1314 194.829 78.064Z" fill="#E84563"/>
<g clip-path="url(#clip0_2606_17231)">
<path d="M229.243 217.708C229.243 217.708 243.795 211.611 230.237 199.551C230.237 199.551 189.405 160.703 177.938 172.009" stroke="#FF002E" stroke-width="5.39346"/>
<path d="M229.243 217.708C229.243 217.708 243.795 211.611 230.237 199.551C230.237 199.551 189.405 160.703 177.938 172.009" stroke="#FF002E" stroke-width="5.39346" stroke-linecap="round"/>
<path d="M186.358 160.732C186.358 160.732 191.726 135.633 168.495 128.713C153.961 123.237 147.056 120.243 146.167 111.751C145.273 103.263 152.537 102.049 154.599 105.139" stroke="#FF002E" stroke-width="4.71927" stroke-linecap="round"/>
<path d="M220.667 179.729C220.667 179.729 232.016 163.75 229.175 148.122C227.124 138.005 232.118 133.624 236.178 127.001C240.243 120.381 240.244 101.844 227.792 90.477C215.341 79.1105 202.024 84.3568 202.024 84.3568C202.024 84.3568 195.261 86.9779 206.515 91.858C217.765 96.7422 218.572 108.302 219.166 119.647" stroke="#FF002E" stroke-width="5.39346" stroke-linecap="round"/>
<path d="M202.277 109.678C202.277 109.678 198.039 128.34 220.235 140.11" stroke="#FF002E" stroke-width="5.39346" stroke-linecap="round"/>
<path d="M252.074 216.004L236.479 231.381" stroke="#FF002E" stroke-width="5.39346" stroke-linecap="round"/>
<path d="M258.381 227.039L245.103 240.13" stroke="#FF002E" stroke-width="5.39346" stroke-linecap="round"/>
<path d="M264.408 238.35L253.729 248.879" stroke="#FF002E" stroke-width="5.39346" stroke-linecap="round"/>
<path d="M271.56 248.201C271.56 248.201 316.505 260.117 290.292 285.962" stroke="#FF002E" stroke-width="5.39346" stroke-linecap="round"/>
<path d="M222.969 223.901C222.969 223.901 216.667 238.365 204.799 224.638C204.799 224.638 166.533 183.261 178 171.955" stroke="#FF002E" stroke-width="5.39346"/>
<path d="M222.969 223.901C222.969 223.901 216.667 238.365 204.799 224.638C204.799 224.638 166.533 183.261 178 171.955" stroke="#FF002E" stroke-width="5.39346" stroke-linecap="round"/>
<path d="M166.605 180.214C166.605 180.214 141.433 185.227 134.842 161.9C129.572 147.29 126.676 140.343 118.197 139.334C109.718 138.325 108.407 145.567 111.467 147.672" stroke="#FF002E" stroke-width="4.71927" stroke-linecap="round"/>
<path d="M185.115 214.789C185.115 214.789 168.978 225.912 153.391 222.85C143.305 220.656 138.853 225.588 132.173 229.554C125.497 233.525 106.961 233.264 95.7719 220.653C84.5825 208.042 90.0164 194.8 90.0164 194.8C90.0164 194.8 92.7328 188.076 97.4534 199.398C102.178 210.716 113.726 211.686 125.061 212.44" stroke="#FF002E" stroke-width="5.39346" stroke-linecap="round"/>
<path d="M115.336 195.406C115.336 195.406 134.056 191.432 145.511 213.792" stroke="#FF002E" stroke-width="5.39346" stroke-linecap="round"/>
<path d="M220.936 246.689L236.527 231.316" stroke="#FF002E" stroke-width="5.39346" stroke-linecap="round"/>
<path d="M231.889 253.169L245.166 240.078" stroke="#FF002E" stroke-width="5.39346" stroke-linecap="round"/>
<path d="M243.211 259.256L253.791 248.824" stroke="#FF002E" stroke-width="5.39346" stroke-linecap="round"/>
<path d="M252.857 266.639C252.857 266.639 264.136 311.748 290.349 285.903" stroke="#FF002E" stroke-width="5.39346" stroke-linecap="round"/>
</g>
<defs>
<clipPath id="clip0_2606_17231">
<rect width="258.123" height="309.424" fill="white" transform="matrix(-0.712086 0.702092 0.702092 0.712086 184.756 0)"/>
</clipPath>
</defs>
</svg>

<svg xmlns="http://www.w3.org/2000/svg" xmlns:xlink="http://www.w3.org/1999/xlink" fill="none" viewBox="0 0 402 402"><defs><path id="b" stroke-width="5.4" d="M229.2 217.7s14.6-6 1-18.1c0 0-40.8-38.9-52.3-27.6"/><path id="c" stroke-width="5.4" d="M223 223.9s-6.3 14.5-18.2.7c0 0-38.3-41.3-26.8-52.6"/></defs><path fill="#D8E6FF" fill-opacity=".6" fill-rule="evenodd" d="M195.4 43.5c47.2-10.1 106.9-15.7 137.4 22 30.3 37.3 0 91.3-7 139-5.2 36.9-6.8 73.2-27.8 103.7-26.4 38.3-56.6 88.2-102.6 85.7-45.8-2.5-59.2-63.8-92.1-96.2C69.5 264.4 2.3 252.2 3 204.5c.7-47.8 66.5-60 103-90.5 30.2-25.4 51-62.3 89.4-70.5Z" clip-rule="evenodd"/><path fill="#E84563" fill-rule="evenodd" d="M194.8 78c31.5-6.9 59.2-43 89.4-31.9 28.5 10.5 22.6 55.4 40.5 80 20.8 28.5 73.2 39.6 72.3 75-1 35.7-54.6 44.3-76.2 72.8-18 23.7-17.2 58-38.7 78.5-23.7 22.6-54.5 42.7-87.3 41.6-32.6-1.2-57.5-28.2-83.8-47.5-24-17.5-57.5-31.3-63.2-60.4-6-30.6 39.4-54.2 34.7-85-6-40-76.4-63.2-62.7-101.2C32 65.5 89.5 85.7 125.7 81.2c23.3-3 46.2 2 69.1-3.1Z" clip-rule="evenodd" opacity=".1"/><g stroke="#FF002E" clip-path="url(#a)"><use xlink:href="#b" stroke-width="5.4"/><use xlink:href="#b" stroke-linecap="round" stroke-width="5.4"/><path stroke-linecap="round" stroke-width="4.7" d="M186.4 160.7s5.3-25-18-32c-14.4-5.5-21.3-8.5-22.2-17-1-8.4 6.3-9.7 8.4-6.6"/><path stroke-linecap="round" stroke-width="5.4" d="M220.7 179.7s11.3-16 8.5-31.6c-2-10 3-14.5 7-21.1 4-6.6 4-25.2-8.4-36.5C215.3 79 202 84.4 202 84.4s-6.7 2.6 4.5 7.5c11.3 4.8 12 16.4 12.7 27.7"/><path stroke-linecap="round" stroke-width="5.4" d="M202.3 109.7s-4.3 18.6 18 30.4M252 216l-15.5 15.4m21.9-4.4L245 240.1m19.4-1.8L253.7 249m17.9-.8s44.9 12 18.7 37.8"/><use xlink:href="#c" stroke-width="5.4"/><use xlink:href="#c" stroke-linecap="round" stroke-width="5.4"/><path stroke-linecap="round" stroke-width="4.7" d="M166.6 180.2s-25.2 5-31.8-18.3c-5.2-14.6-8.1-21.6-16.6-22.6-8.5-1-9.8 6.3-6.7 8.4"/><path stroke-linecap="round" stroke-width="5.4" d="M185.1 214.8s-16.1 11.1-31.7 8c-10-2.1-14.5 2.8-21.2 6.8-6.7 4-25.2 3.7-36.4-9C84.6 208 90 194.9 90 194.9s2.7-6.7 7.5 4.6c4.7 11.3 16.2 12.3 27.6 13"/><path stroke-linecap="round" stroke-width="5.4" d="M115.3 195.4s18.8-4 30.2 18.4m75.5 32.9 15.5-15.4m-4.6 21.9 13.3-13.1m-2 19.2 10.6-10.5m-.9 17.8s11.2 45.1 37.4 19.3"/></g><defs><clipPath id="a"><path fill="#fff" d="M0 0h258.1v309.4H0z" transform="scale(-1 1) rotate(44.6 -92.4 -225.3)"/></clipPath></defs></svg>
